archdroid-icon-theme/Archdroid-LightGreen/status/scalable/software-update-urgent.svg

<svg xmlns="http://www.w3.org/2000/svg" viewBox="0 0 44 36" fill="#8BC34A"><path d="m22 26l8-8h-6v-18h-4v18h-6l8 8m18-26h-12v3.97h12v28.06h-36v-28.06h12v-3.97h-12c-2.21 0-4 1.79-4 4v28c0 2.21 1.79 4 4 4h36c2.21 0 4-1.79 4-4v-28c0-2.21-1.79-4-4-4"/></svg>

<?xml version="1.0" encoding="UTF-8" standalone="no"?>
<svg
   xmlns:dc="http://purl.org/dc/elements/1.1/"
   xmlns:cc="http://creativecommons.org/ns#"
   xmlns:rdf="http://www.w3.org/1999/02/22-rdf-syntax-ns#"
   xmlns:svg="http://www.w3.org/2000/svg"
   xmlns="http://www.w3.org/2000/svg"
   xmlns:sodipodi="http://sodipodi.sourceforge.net/DTD/sodipodi-0.dtd"
   xmlns:inkscape="http://www.inkscape.org/namespaces/inkscape"
   width="44"
   height="36"
   viewBox="0 0 44 36"
   id="svg2"
   version="1.1"
   inkscape:version="0.91 r13725"
   sodipodi:docname="software-update-urgent-symbolic.svg"
   style="fill:#8BC34A">
  <metadata
     id="metadata10">
    <rdf:RDF>
      <cc:Work
         rdf:about="">
        <dc:format>image/svg+xml</dc:format>
        <dc:type
           rdf:resource="http://purl.org/dc/dcmitype/StillImage" />
        <dc:title></dc:title>
      </cc:Work>
    </rdf:RDF>
  </metadata>
  <defs
     id="defs8" />
  <sodipodi:namedview
     pagecolor="#ffffff"
     bordercolor="#666666"
     borderopacity="1"
     objecttolerance="10"
     gridtolerance="10"
     guidetolerance="10"
     inkscape:pageopacity="0"
     inkscape:pageshadow="2"
     inkscape:window-width="640"
     inkscape:window-height="480"
     id="namedview6"
     showgrid="false"
     fit-margin-top="0"
     fit-margin-left="0"
     fit-margin-right="0"
     fit-margin-bottom="0"
     inkscape:zoom="4.916666666666667"
     inkscape:cx="22"
     inkscape:cy="18.5"
     inkscape:window-x="0"
     inkscape:window-y="30"
     inkscape:window-maximized="0"
     inkscape:current-layer="svg2" />
  <path
     d="m 22,26 8,-8 -6,0 0,-18 -4,0 0,18 -6,0 8,8 z M 40,0 28,0 28,3.97 40,3.97 40,32.03 l -36,0 0,-28.059999999999998 12,0 L 16,3.552713678800501e-15 l -12,0 C 1.79,1.77635683940025e-15 0,1.789999999999999 0,4 l 0,28 c 0,2.21 1.79,4 4,4 l 36,0 c 2.21,0 4,-1.79 4,-4 L 44,4 C 44,1.789999999999999 42.21,0 40,0 Z"
     id="path4"
     inkscape:connector-curvature="0" />
</svg>
